svg/furkot/freepik/highlighter.svg

<svg height="512" viewBox="0 0 512 512" width="512" xmlns="http://www.w3.org/2000/svg"><path d="m436.695 204.797-145.609-145.609c-70.418 60.109-169.422 144.628-195.469 166.859l-35.469 30.273 179.407 179.41c30.242-35.429 132.332-155.015 197.14-230.933zm-388.504 255.203h39.602c1.129 0 2.242-.141 3.324-.387l-56.179-56.179-14.083 14.183c-5.808 5.852-5.808 15.289 0 21.137l16.692 16.812c2.812 2.836 6.644 4.434 10.644 4.434zm7.957-77.93-.074.075 57.836 57.835.078-.074 8.071 8.071c2.812 2.812 6.629 4.394 10.605 4.394 3.981 0 7.793-1.578 10.606-4.394 12.644-12.645 24.636-19.825 35.64-21.34 3.102-.43 6.176-.383 9.242.113l-119.004-119.004c.473 2.922.528 5.856.161 8.809-1.383 11.117-8.582 23.254-21.395 36.066-2.812 2.813-4.394 6.625-4.394 10.606 0 3.976 1.582 7.793 4.394 10.605zm436.157-242.414c5.078-5.949 4.73-14.808-.805-20.343l-114.922-114.918c-5.531-5.532-14.387-5.883-20.34-.809-8.847 7.547-23.812 20.316-42.261 36.066l142.257 142.258c21.829-25.57 36.071-42.254 36.071-42.254zm-10.969062 342.344h-446.945313c-8.28125 0-15 6.714844-15 15s6.71875 15 15 15h446.941406c8.285157 0 15-6.714844 15-15s-6.714843-15-14.996093-15zm0 0"/></svg>

<svg height="512" viewBox="0 0 512 512" width="512" xmlns="http://www.w3.org/2000/svg"><path d="M436.695 204.797L291.086 59.188C220.668 119.297 121.664 203.816 95.617 226.047L60.148 256.32 239.555 435.73C269.797 400.301 371.887 280.715 436.695 204.797zM48.191 460L87.793 460C88.922 460 90.035 459.859 91.117 459.613L34.938 403.434 20.855 417.617C15.047 423.469 15.047 432.906 20.855 438.754L37.547 455.566C40.359 458.402 44.191 460 48.191 460zM56.148 382.07L56.074 382.145 113.91 439.98 113.988 439.906 122.059 447.977C124.871 450.789 128.688 452.371 132.664 452.371 136.645 452.371 140.457 450.793 143.27 447.977 155.914 435.332 167.906 428.152 178.91 426.637 182.012 426.207 185.086 426.254 188.152 426.75L69.148 307.746C69.621 310.668 69.676 313.602 69.309 316.555 67.926 327.672 60.727 339.809 47.914 352.621 45.102 355.434 43.52 359.246 43.52 363.227 43.52 367.203 45.102 371.02 47.914 373.832zM492.305 139.656C497.383 133.707 497.035 124.848 491.5 119.313L376.578 4.395C371.047-1.137 362.191-1.488 356.238 3.586 347.391 11.133 332.426 23.902 313.977 39.652L456.234 181.91C478.063 156.34 492.305 139.656 492.305 139.656zM481.335938 482h-446.945313c-8.28125 0-15 6.714844-15 15s6.71875 15 15 15h446.941406c8.285157 0 15-6.714844 15-15s-6.714843-15-14.996093-15zm0 0"/></svg>
